public/img/icons/encryption-key-icon.svg

<svg fill="none" height="64" viewBox="0 0 64 64" width="64" xmlns="http://www.w3.org/2000/svg"><path clip-rule="evenodd" d="m32 15c1.6569 0 3-1.3431 3-3s-1.3431-3-3-3-3 1.3431-3 3 1.3431 3 3 3z" fill="#fff" fill-rule="evenodd"/><g stroke="#000" stroke-width="2"><path d="m44.0037 23c.6418-1.5392.9963-3.2282.9963-5 0-7.1797-5.8203-13-13-13s-13 5.8203-13 13c0 5.7841 3.7775 10.6859 9 12.373v24.627l4 4 5-4v-4h-3v-3h3v-6h-3v-3l3-2v-6.9963c1.8219-.7598 3.4339-1.9223 4.7248-3.3763m-6.7248-14.6274c0 1.6569-1.3431 3-3 3s-3-1.3431-3-3 1.3431-3 3-3 3 1.3431 3 3z" stroke-linecap="round" stroke-linejoin="round"/><path d="m29 25h6" stroke-linecap="round" stroke-linejoin="round"/><path d="m31 31v20" stroke-linecap="round" stroke-linejoin="round"/><path d="m41 45h8" stroke-linecap="round" stroke-linejoin="round"/><path d="m37 53h6l2 4h4" stroke-linecap="round" stroke-linejoin="round"/><path d="m37 37h6l2-4h4" stroke-linecap="round" stroke-linejoin="round"/><path d="m28 53h-6l-2 4h-4" stroke-linecap="round" stroke-linejoin="round"/><path d="m28 37h-6l-2-4h-4" stroke-linecap="round" stroke-linejoin="round"/><path d="m16 45h8" stroke-linecap="round" stroke-linejoin="round"/><circle cx="51" cy="45" r="2"/><circle cx="51" cy="57" r="2"/><circle cx="51" cy="33" r="2"/><circle cx="14" cy="57" r="2"/><circle cx="14" cy="33" r="2"/><circle cx="14" cy="45" r="2"/></g></svg>

<svg width="64" height="64" viewBox="0 0 64 64" fill="none" xmlns="http://www.w3.org/2000/svg">
<path fill-rule="evenodd" clip-rule="evenodd" d="M32 15C33.6569 15 35 13.6569 35 12C35 10.3431 33.6569 9 32 9C30.3431 9 29 10.3431 29 12C29 13.6569 30.3431 15 32 15Z" fill="white"/>
<path d="M44.0037 23C44.6455 21.4608 45 19.7718 45 18C45 10.8203 39.1797 5 32 5C24.8203 5 19 10.8203 19 18C19 23.7841 22.7775 28.6859 28 30.373V55L32 59L37 55V51H34V48H37V42H34V39L37 37V30.0037C38.8219 29.2439 40.4339 28.0814 41.7248 26.6274M35 12C35 13.6569 33.6569 15 32 15C30.3431 15 29 13.6569 29 12C29 10.3431 30.3431 9 32 9C33.6569 9 35 10.3431 35 12Z" stroke="black" stroke-width="2" stroke-linecap="round" stroke-linejoin="round"/>
<path d="M29 25H35" stroke="black" stroke-width="2" stroke-linecap="round" stroke-linejoin="round"/>
<path d="M31 31V51" stroke="black" stroke-width="2" stroke-linecap="round" stroke-linejoin="round"/>
<path d="M41 45H49" stroke="black" stroke-width="2" stroke-linecap="round" stroke-linejoin="round"/>
<path d="M37 53H43L45 57H49" stroke="black" stroke-width="2" stroke-linecap="round" stroke-linejoin="round"/>
<path d="M37 37H43L45 33H49" stroke="black" stroke-width="2" stroke-linecap="round" stroke-linejoin="round"/>
<path d="M28 53H22L20 57H16" stroke="black" stroke-width="2" stroke-linecap="round" stroke-linejoin="round"/>
<path d="M28 37H22L20 33H16" stroke="black" stroke-width="2" stroke-linecap="round" stroke-linejoin="round"/>
<path d="M16 45H24" stroke="black" stroke-width="2" stroke-linecap="round" stroke-linejoin="round"/>
<circle cx="51" cy="45" r="2" stroke="black" stroke-width="2"/>
<circle cx="51" cy="57" r="2" stroke="black" stroke-width="2"/>
<circle cx="51" cy="33" r="2" stroke="black" stroke-width="2"/>
<circle cx="14" cy="57" r="2" stroke="black" stroke-width="2"/>
<circle cx="14" cy="33" r="2" stroke="black" stroke-width="2"/>
<circle cx="14" cy="45" r="2" stroke="black" stroke-width="2"/>
</svg>
